X:959
T:Rub the bag
R:Set dance
O:Ireland
B:O'Neill's 1795
S:O'Neill's 1795
Z:Transcription:Robert Thorpe, chords:Mike Long
M:6/8
L:1/8
K:D
"D"d2d fed|"A"cBA cec|"Bm"BcB fdB|dcB fdB|\
"D"d2d fed|"A"cBA cec|
ABA ecA|[1 (A/B/c)A ecA:|[2 "A"(A/B/c)B "D"dz2\
|:"D"ded def|"A"efe efg|
"D"fgf f2^g|"A"aba a2g|"Bm"fgf fga|"Em"gfe efe|"Bm"~d3 fed|\
"A"cBA cec|
"Bm"BcB fdB|\
(B/c/d)B fdB|"D"~dcd fed|"A"cBA cec|ABA ecA|"A"(A/B/c)A "D"d3:|
